icons/svg/indent.svg

<svg xmlns="http://www.w3.org/2000/svg" version="1.1" baseProfile="full" width="24" height="24" viewBox="0 0 24.00 24.00" xml:space="preserve"><path fill="#000" fill-opacity="1" stroke-width=".2" stroke-linejoin="round" d="M2 3h20v3H2V3zm7 5h13v3H9V8zm0 5h13v3H9v-3zm-7 5h20v3H2v-3zM3 8l4 4-4 4H2V8h1z"/></svg>

﻿<?xml version="1.0" encoding="utf-8"?>
<!DOCTYPE svg PUBLIC "-//W3C//DTD SVG 1.1//EN" "http://www.w3.org/Graphics/SVG/1.1/DTD/svg11.dtd">
<svg xmlns="http://www.w3.org/2000/svg" xmlns:xlink="http://www.w3.org/1999/xlink" version="1.1" baseProfile="full" width="24" height="24" viewBox="0 0 24.00 24.00" enable-background="new 0 0 24.00 24.00" xml:space="preserve">
	<path fill="#000000" fill-opacity="1" stroke-width="0.2" stroke-linejoin="round" d="M 2,3L 22,3L 22,6L 2,6L 2,3 Z M 9,8.00002L 22,8.00001L 22,11L 9,11L 9,8.00002 Z M 9,13L 22,13L 22,16L 9,16L 9,13 Z M 2,18L 22,18L 22,21L 2,21L 2,18 Z M 3,8L 7,12L 3,16L 2,16L 2,8L 3,8 Z "/>
</svg>
